svgs/sharp-light/nfc-trash.svg

<svg xmlns="http://www.w3.org/2000/svg" viewBox="0 0 640 512"><!--! Font Awesome Pro 6.6.0 by @fontawesome - https://fontawesome.com License - https://fontawesome.com/license (Commercial License) Copyright 2024 Fonticons, Inc. --><path d="M32 64l384 0 0 136.2L429.4 160l18.6 0 0-96 0-32-32 0L32 32 0 32 0 64 0 448l0 32 32 0 349.6 0-2.3-32L32 448 32 64zm352 48l0-16-16 0L224 96l-16 0 0 16 0 98.7c-18.6 6.6-32 24.4-32 45.3c0 26.5 21.5 48 48 48s48-21.5 48-48c0-20.9-13.4-38.7-32-45.3l0-82.7 112 0 0 80 32 0 0-96zm-6.9 304l-8-112L352 304l0 80L96 384l0-256 48 0 16 0 0-32-16 0L80 96 64 96l0 16 0 288 0 16 16 0 288 0 9.1 0zM240 256a16 16 0 1 1 -32 0 16 16 0 1 1 32 0zm212.5-64l-3.6 10.9L436.5 240 400 240l-16 0 0 32 16 0 48 0 128 0 48 0 16 0 0-32-16 0-36.5 0-12.4-37.1L571.5 192 560 192l-96 0-11.5 0zm17.7 48l5.3-16 72.9 0 5.3 16-83.6 0zm-69 64.1L416 512l192 0 14.9-207.9-32.1 0L578.2 480l-132.4 0L433.2 304.1l-32.1 0z"/></svg>

<svg xmlns="http://www.w3.org/2000/svg" viewBox="0 0 640 512"><!--! Font Awesome Pro 6.4.2 by @fontawesome - https://fontawesome.com License - https://fontawesome.com/license (Commercial License) Copyright 2023 Fonticons, Inc. --><path d="M32 64H416V200.2L429.4 160H448V64 32H416 32 0V64 448v32H32 381.6l-2.3-32H32V64zm352 48V96H368 224 208v16 98.7c-18.6 6.6-32 24.4-32 45.3c0 26.5 21.5 48 48 48s48-21.5 48-48c0-20.9-13.4-38.7-32-45.3V128H352v80h32V112zm-6.9 304l-8-112H352v80H96V128h48 16V96H144 80 64v16V400v16H80 368h9.1zM240 256a16 16 0 1 1 -32 0 16 16 0 1 1 32 0zm212.5-64l-3.6 10.9L436.5 240H400 384v32h16 48H576h48 16V240H624 587.5l-12.4-37.1L571.5 192H560 464 452.5zm17.7 48l5.3-16h72.9l5.3 16H470.2zm-69 64.1L416 512H608l14.9-207.9H590.8L578.2 480H445.8L433.2 304.1H401.1z"/></svg>
